X:1
T:Coca-Cola
T:Coca-Cola
T:The Original Was Deleted
T:Musicman-8 (Arranged By Octavio Morales)
C:Musicman-8 (Arranged By Octavio Morales)
%%score 1 2
L:1/8
Q:1/4=115
M:4/4
K:C
V:1 perc nm="Snare Drum" snm="S.D."
K:none
I:percmap ^f f 53 x
I:percmap ^g g 52 x
I:percmap f f 50 normal
V:2 perc nm="Tenor Drums" snm="T.D."
K:none
I:percmap A A 48 normal
I:percmap F F 36 normal
I:percmap c c 60 normal
I:percmap e e 72 normal
I:percmap g g 84 normal
V:1
 !>!ff f!/!f/!/!f/ !>!ff f!/!f/!/!f/ | !>!ff!>!ff !>!f!>!f (3!>!f!>!f!>!f |!p! f2 ^g2 ^g2 ^g2 | %3
 ^g2 ^g2 ^g2 ^g2 | ^g2!f! ^f2 ^g2 ^f2 | ^g2 ^g2 z{/f} f f/f/f/f/ |: %6
 !>!f/f/f/f/ f/f/!>!f/!>!f/ !/!!>!f/!/!!>!f/f/f/ !/!!>!f/!/!!>!f/f/f/ | %7
 !>!f/f/f/f/ f/f/!>!f/!>!f/ !/!!>!f/!/!!>!f/f/f/ !/!!>!f/!/!!>!f/f/f/ | %8
 !>!f/f/f/f/ !/!!>!f/!/!!>!f/f/f/ ff/f/ f/f/f/f/ |1 %9
{/f} ff/{/f}ff/{/f}f ^ff/f/ !/!f/!/!f/!/!f/!/!f/ :|2 !>!^g2 !>!^g2 !>!^g!>!^g!>!^g!>!^g || %11
 !>!^g/^g/^g/^g/ ^g/^g/!>!^g/!>!^g/ !/!!>!^g/!/!!>!^g/^g/^g/ !/!!>!^g/!/!!>!^g/^g/^g/ | %12
 !>!^g/^g/^g !>!^g/^g/^g/!>!^g/ !>!^g^g/^g/ !/!!>!^g/!/!!>!^g/^g/^g/ | ^g2 ^g2 ^g2 ^ff/f/ | %14
 !>!f/f/f/f/ ^f/ff/ !/!!>!f/!/!!>!f/f/f/ (6:4:6f/f/f/f/f/f/ | %15
 (6:4:6f/f/f/f/f/f/ ff/f/ f/f/f (3fff | ff/f/ f/f/f/f/ (3fff ff | ^f2 z2 z4 |] %18
V:2
 z8 | z8 | z8 | z8 | z8 |!ff! (3e/e/e/(3c/c/c/ (3g/g/g/(3F/F/F/ A/F/A/c/ eF |: %6
 [FA]2 g[FA]/[FA][FA]/[FA] g[FA] | [FA]2 g[FA]/[FA][FA]/[FA] g[FA] | %8
 [FA]2 g[FA]/[FA][FA]/[FA] g[FA] |1 z8 :|2 z8 || c/e/e/c/ c/e/e/c/ e/A/c/F/ e/A/c/F/ | %12
 gA (6:4:6e/e/e/e/e/e/ ec z/ [FA][FA]/ | [FA]2 z2 z4 | [FA]2 g[FA]/[FA][FA]/[FA] g[FA] | %15
 [FA]2 z2 z4 | [FA]2 e/e/e/e/ (3ccc AF | [FA]2 z2 z4 |] %18

